packages/foundations/assets/icons/functional/images/social/star_12_filled.svg

<svg width="12" height="12" viewBox="0 0 12 12" fill="none" xmlns="http://www.w3.org/2000/svg">
<g clip-path="url(#clip0_2214_6256)">
<path fill-rule="evenodd" clip-rule="evenodd" d="M8.58745 10.5937C8.49367 10.5937 8.39995 10.5562 8.32495 10.5187L5.99995 9.29997L3.67495 10.5187C3.58123 10.575 3.50623 10.5937 3.39367 10.5937C3.03745 10.5937 2.75623 10.2375 2.81245 9.89997L3.26245 7.31247L1.38745 5.49369C1.27495 5.38125 1.19995 5.21247 1.19995 5.06247C1.19995 4.81869 1.36867 4.51869 1.70623 4.46247L4.31245 4.08747L5.45623 1.74369C5.54995 1.53747 5.77495 1.40625 5.99995 1.40625C6.22495 1.40625 6.44995 1.53747 6.54367 1.74369L7.68745 4.08747L10.2937 4.46247C10.575 4.49997 10.8 4.74369 10.8 5.06247C10.8 5.21247 10.725 5.38125 10.6125 5.49369L8.73745 7.31247L9.18745 9.89997C9.24367 10.275 8.96245 10.5937 8.58745 10.5937Z" fill="#1A1C1F"/>
</g>
<defs>
<clipPath id="clip0_2214_6256">
<rect width="12" height="12" fill="white"/>
</clipPath>
</defs>
</svg>

<svg xmlns="http://www.w3.org/2000/svg" width="12" height="12" fill="none"><g clip-path="url(#a)"><path fill="#1A1C1F" fill-rule="evenodd" d="M8.587 10.594a.6.6 0 0 1-.262-.075L6 9.3l-2.325 1.219a.5.5 0 0 1-.281.075c-.357 0-.638-.356-.582-.694l.45-2.588-1.875-1.818a.65.65 0 0 1-.187-.432c0-.243.169-.543.506-.6l2.606-.375 1.144-2.343A.6.6 0 0 1 6 1.406c.225 0 .45.131.544.338l1.143 2.343 2.607.375a.59.59 0 0 1 .506.6c0 .15-.075.32-.187.432L8.737 7.312l.45 2.588a.598.598 0 0 1-.6.694" clip-rule="evenodd"/></g><defs><clipPath id="a"><path fill="#fff" d="M0 0h12v12H0z"/></clipPath></defs></svg>
